icon_installer/data/icons/scalable/actions/show-tab-new-filled-symbolic.svg

<?xml version="1.0" encoding="UTF-8"?>
<svg height="16px" viewBox="0 0 16 16" width="16px" xmlns="http://www.w3.org/2000/svg">
    <path d="m 4 1 s -0.707031 -0.015625 -1.449219 0.355469 c -0.738281 0.371093 -1.550781 1.3125 -1.550781 2.644531 v 9 h -1 l -0.00390625 2 h 0.00390625 l 3 0.011719 v -0.011719 h 13 v -2 h -1 v -9 s 0.015625 -0.707031 -0.355469 -1.449219 c -0.371093 -0.738281 -1.3125 -1.550781 -2.644531 -1.550781 z m 3.007812 4 h 2 v 2 h 2 v 2 h -2 v 2 h -2 v -2 h -2 v -2 h 2 z m 0 0" fill="#222222"/>
</svg>

<svg xmlns="http://www.w3.org/2000/svg" width="16" height="16"><path fill="#222" d="M4 1s-.707-.016-1.45.355C1.813 1.727 1 2.668 1 4v9H0l-.004 2H0l3 .012V15h13v-2h-1V4s.016-.707-.355-1.45C14.273 1.813 13.332 1 12 1zm3.008 4h2v2h2v2h-2v2h-2V9h-2V7h2zm0 0"/></svg>
